X:210
T: Denis Murphy's
S: "Where's the Crack v/1" (DJ Taylor)
Z: B.Black
L: 1/8
M: 4/4
R: reel
K: G
G2 GA Bded|B2 BA GE E2|BGAF GABd|1 (3efg fa gedB :|
|2 (3efg fa g2 ga||g3 abgaf|gavf gfed|B2 BA GABd|
(3efg fa gfed|g2 ga bgaf|gaba gfed|BdGd GABd|\
egfa gfed ||
